X:1
T: Miss Johnston of Hilton's Fancy
C:Nathaniel Gow
R:Jig
Q:180
K:Eb
M:6/8
L:1/16
|:B2|G2F2E2 G2B2c2|B2G2A2 B2c2d2|e2B2G2 B2G2E2|D2F2F2 F4A2|
G2F2E2 G2B2c2|B2G2A2 B2c2d2|e2f2g2 f2d2B2|e6e4:|
ga|b2g2e2 e2f2g2|f2d2B2 B2c2d2|e2f2g2 g2f2e2|d2f2f2 f2g2a2|
b2g2e2 e2f2g2|f2d2B2 f2d2B2|c2d2e2 B2e2d2|e6e4ga|
b2g2e2 e2f2g2|f2d2B2 B2c2d2|e2f2g2 f2g2e2|d2f2f2 f2e2d2|
c2e2e2 B2e2e2|c2A2c2 B2G2E2|D2A2G2 F2E2D2|E6E4||
